X: 162
T:Misirlou
M:4/4
L:1/8
F:http://blackrosetheband.googlepages.com/ABCTUNES.ABC May 2009
K:Dm
"D"D4 ^F2 G2 | A4 ^c2 B2 | (A8 | A8) |
D4 ^F2 G2 | A4 ^c2 B2 | (A8 | A8) |
"Cm"B A2 B A2 G2 | A G2 A G2 ^F2 | "D"(^F8 | ^F8) |
"Cm"A G2 A G2 ^F2 | G ^F2 G F2 _E2 | "D"(D8 | D8) :||
"Gm"(G8 | G6) ^F G | "Am"(A8 | A6) G A |
"Bb"B6 A B | "C"^c4 B2 c2 |"D" (d8 | d8) |
"Eb"_e2 de d2 c2 | d2 cd c2 B2 | "D"(A8 | A8) |
"Cm"c2 Bc B2 A2 | A2 ^FA F2 _E2 | "D"(D8 | D8)|

